libs/ui/packages/crypto-icons/src/svg/LOOM.svg

<svg width="24" height="24" viewBox="0 0 24 24" fill="none">
<path d="M16.6456 19.6793L4.35764 11.058C3.93892 10.7642 3.59712 10.3738 3.36115 9.92C3.12518 9.46615 3.00198 8.96215 3.00198 8.45063C3.00198 7.9391 3.12518 7.4351 3.36115 6.98125C3.59712 6.52741 3.93892 6.13707 4.35764 5.84325L7.33514 3.75L19.6246 12.3705C20.0434 12.6643 20.3852 13.0547 20.6211 13.5085C20.8571 13.9624 20.9803 14.4664 20.9803 14.9779C20.9803 15.4894 20.8571 15.9934 20.6211 16.4472C20.3852 16.9011 20.0434 17.2914 19.6246 17.5853L16.6456 19.6793ZM7.33214 5.14725L5.01239 6.77025C4.74255 6.95893 4.52221 7.20993 4.37007 7.50194C4.21794 7.79395 4.1385 8.11836 4.1385 8.44763C4.1385 8.77689 4.21794 9.1013 4.37007 9.39331C4.52221 9.68532 4.74255 9.93632 5.01239 10.125L16.6479 18.2828L18.9684 16.6598C19.2382 16.4711 19.4586 16.2201 19.6107 15.9281C19.7628 15.636 19.8423 15.3116 19.8423 14.9824C19.8423 14.6531 19.7628 14.3287 19.6107 14.0367C19.4586 13.7447 19.2382 13.4937 18.9684 13.305L7.33214 5.14725Z" fill="#48BEFF"/>
<path d="M7.32213 18.2815L5.00463 16.6562C4.73479 16.4676 4.51445 16.2166 4.36232 15.9246C4.21018 15.6325 4.13074 15.3081 4.13074 14.9789C4.13074 14.6496 4.21018 14.3252 4.36232 14.0332C4.51445 13.7412 4.73479 13.4902 5.00463 13.3015L11.0046 9.11425L10.0146 8.41825L4.35663 12.3692C3.93791 12.6631 3.59611 13.0534 3.36014 13.5073C3.12417 13.9611 3.00098 14.4651 3.00098 14.9766C3.00098 15.4881 3.12417 15.9922 3.36014 16.446C3.59611 16.8998 3.93791 17.2902 4.35663 17.584L7.32438 19.6682L10.9971 17.0965L10.0116 16.402L7.32213 18.2815ZM19.6274 5.8465L16.6574 3.76375L12.9824 6.3355L13.9679 7.02925L16.6529 5.1505L18.9704 6.77575C19.2402 6.96443 19.4606 7.21543 19.6127 7.50744C19.7648 7.79945 19.8443 8.12386 19.8443 8.45312C19.8443 8.78239 19.7648 9.1068 19.6127 9.39881C19.4606 9.69082 19.2402 9.94182 18.9704 10.1305L12.9704 14.317L13.9566 15.0115L19.6221 11.0537C20.0409 10.7599 20.3827 10.3696 20.6186 9.91574C20.8546 9.4619 20.9778 8.9579 20.9778 8.44637C20.9778 7.93485 20.8546 7.43085 20.6186 6.977C20.3827 6.52316 20.0409 6.13282 19.6221 5.839L19.6281 5.8465H19.6274Z" fill="#48BEFF"/>
<path d="M5.05939 11.8718L9.73189 8.60025L10.3829 9.53025L5.70964 12.8018L5.05939 11.8718ZM18.3719 10.5533L16.0956 12.147L16.7466 13.0778L19.1031 11.4248C18.8526 11.1383 18.6104 10.8458 18.3674 10.5525L18.3719 10.5533Z" fill="#48BEFF"/>
<path d="M16.6456 19.6793L4.35764 11.058C3.93892 10.7642 3.59712 10.3738 3.36115 9.92C3.12518 9.46615 3.00198 8.96215 3.00198 8.45063C3.00198 7.9391 3.12518 7.4351 3.36115 6.98125C3.59712 6.52741 3.93892 6.13707 4.35764 5.84325L7.33514 3.75L19.6246 12.3705C20.0434 12.6643 20.3852 13.0547 20.6211 13.5085C20.8571 13.9624 20.9803 14.4664 20.9803 14.9779C20.9803 15.4894 20.8571 15.9934 20.6211 16.4472C20.3852 16.9011 20.0434 17.2914 19.6246 17.5853L16.6456 19.6793ZM7.33214 5.14725L5.01239 6.77025C4.74255 6.95893 4.52221 7.20993 4.37007 7.50194C4.21794 7.79395 4.1385 8.11836 4.1385 8.44763C4.1385 8.77689 4.21794 9.1013 4.37007 9.39331C4.52221 9.68532 4.74255 9.93632 5.01239 10.125L16.6479 18.2828L18.9684 16.6598C19.2382 16.4711 19.4586 16.2201 19.6107 15.9281C19.7628 15.636 19.8423 15.3116 19.8423 14.9824C19.8423 14.6531 19.7628 14.3287 19.6107 14.0367C19.4586 13.7447 19.2382 13.4937 18.9684 13.305L7.33214 5.14725Z" fill="#48BEFF"/>
<path d="M7.32213 18.2815L5.00463 16.6562C4.73479 16.4676 4.51445 16.2166 4.36232 15.9246C4.21018 15.6325 4.13074 15.3081 4.13074 14.9789C4.13074 14.6496 4.21018 14.3252 4.36232 14.0332C4.51445 13.7412 4.73479 13.4902 5.00463 13.3015L11.0046 9.11425L10.0146 8.41825L4.35663 12.3692C3.93791 12.6631 3.59611 13.0534 3.36014 13.5073C3.12417 13.9611 3.00098 14.4651 3.00098 14.9766C3.00098 15.4881 3.12417 15.9922 3.36014 16.446C3.59611 16.8998 3.93791 17.2902 4.35663 17.584L7.32438 19.6682L10.9971 17.0965L10.0116 16.402L7.32213 18.2815ZM19.6274 5.8465L16.6574 3.76375L12.9824 6.3355L13.9679 7.02925L16.6529 5.1505L18.9704 6.77575C19.2402 6.96443 19.4606 7.21543 19.6127 7.50744C19.7648 7.79945 19.8443 8.12386 19.8443 8.45312C19.8443 8.78239 19.7648 9.1068 19.6127 9.39881C19.4606 9.69082 19.2402 9.94182 18.9704 10.1305L12.9704 14.317L13.9566 15.0115L19.6221 11.0537C20.0409 10.7599 20.3827 10.3696 20.6186 9.91574C20.8546 9.4619 20.9778 8.9579 20.9778 8.44637C20.9778 7.93485 20.8546 7.43085 20.6186 6.977C20.3827 6.52316 20.0409 6.13282 19.6221 5.839L19.6281 5.8465H19.6274Z" fill="#48BEFF"/>
<path d="M5.05939 11.8718L9.73189 8.60025L10.3829 9.53025L5.70964 12.8018L5.05939 11.8718ZM18.3719 10.5533L16.0956 12.147L16.7466 13.0778L19.1031 11.4248C18.8526 11.1383 18.6104 10.8458 18.3674 10.5525L18.3719 10.5533Z" fill="#48BEFF"/>
</svg>

<svg width="24" height="24" viewBox="0 0 24 24" fill="none"><path fill="#48beff" d="M16.646 19.68 4.358 11.057a3.186 3.186 0 0 1 0-5.215L7.335 3.75l12.29 8.62a3.184 3.184 0 0 1 0 5.215zM7.332 5.146 5.012 6.77a2.047 2.047 0 0 0 0 3.355l11.636 8.158 2.32-1.623a2.047 2.047 0 0 0 0-3.355z"/><path fill="#48beff" d="m7.322 18.282-2.317-1.626a2.046 2.046 0 0 1 0-3.354l6-4.188-.99-.696-5.658 3.951a3.186 3.186 0 0 0 0 5.215l2.967 2.084 3.673-2.572-.985-.694zM19.627 5.846l-2.97-2.082-3.675 2.572.986.693 2.685-1.878 2.317 1.625a2.047 2.047 0 0 1 0 3.355l-6 4.186.987.694 5.665-3.957a3.183 3.183 0 0 0 0-5.215l.006.007"/><path fill="#48beff" d="M5.06 11.872 9.731 8.6l.65.93-4.672 3.272zm13.312-1.319-2.276 1.594.65.93 2.357-1.652q-.373-.432-.736-.873z"/><path fill="#48beff" d="M16.646 19.68 4.358 11.057a3.186 3.186 0 0 1 0-5.215L7.335 3.75l12.29 8.62a3.184 3.184 0 0 1 0 5.215zM7.332 5.146 5.012 6.77a2.047 2.047 0 0 0 0 3.355l11.636 8.158 2.32-1.623a2.047 2.047 0 0 0 0-3.355z"/><path fill="#48beff" d="m7.322 18.282-2.317-1.626a2.046 2.046 0 0 1 0-3.354l6-4.188-.99-.696-5.658 3.951a3.186 3.186 0 0 0 0 5.215l2.967 2.084 3.673-2.572-.985-.694zM19.627 5.846l-2.97-2.082-3.675 2.572.986.693 2.685-1.878 2.317 1.625a2.047 2.047 0 0 1 0 3.355l-6 4.186.987.694 5.665-3.957a3.183 3.183 0 0 0 0-5.215l.006.007"/><path fill="#48beff" d="M5.06 11.872 9.731 8.6l.65.93-4.672 3.272zm13.312-1.319-2.276 1.594.65.93 2.357-1.652q-.373-.432-.736-.873z"/></svg>
